!!!OTL: NACH SEVILLA NACH SEVILLA
!!!ARE: Europa, Mitteleuropa, Deutschland
!!!SCT: F0907
!!!YEM: Copyright 1995, estate of Helmut Schaffrath.
**kern
*ICvox
*Ivox
*M2/4
*k[f#c#]
*D:
{16a
16a
=1
8a
8f#
8r
16dd
16dd
=2
8dd
8a
8r}
{16dd
16cc#
=3
8.b
16a
8g
16a
16b
=4
8b
8a
8r}
{16a
16dd
=5
16dd
16cc#
16b
16a
8.a
16g
=6
8g
8f#
8r}
{16f#
16f#
=7
8.b
16ccn
8.b
16a
=8
8a
8g}
{8.ee
16b
=9
8.a
16b
8.g
16g
=10
8g
8f#}
{8.dd
16a
=11
8b
8g
8e
8a
=12
4f#}
{8.a
16dd
=13
8b
8ee
8dd
8cc#
=14
4dd
8r}
==
!!!AGN: Liebes - Lied
!!!ONB: ESAC (Essen Associative Code) Database: FINK
!!!AMT: simple duple
!!!AIN: vox
!!!EED: Helmut Schaffrath
!!!EEV: 1.0
*-
